X: 11833
Q: "Lively."
M: 6/8
L: 1/8
K: G
f>ed (ed)B | dgB A2G | gfe deG | B3 d2 :|
|: d |\
gab abg | adb a2g | gab abg | f>ed g2g |\
f>ed ede | gdB (Aa)f | g(e/f/g) deG | B3 d2 :|


